Costumes/Human_09-upperarm_L.svg

<?xml version="1.0" encoding="UTF-8"?>
<svg id="Layer_2" data-name="Layer 2" xmlns="http://www.w3.org/2000/svg" viewBox="0 0 46.26 93.55">
  <defs>
    <style>
      .cls-1 {
        fill: #06006b;
      }

      .cls-2 {
        fill: #0d0a43;
      }
    </style>
  </defs>
  <g id="Layer_1-2" data-name="Layer 1">
    <path d="M20.38.08c6.55-.6,15.24,2.25,19,7.94,5.88,8.89,3.01,28.65,3.46,39.7.27,6.44.94,14.3,1.44,20.86.34,4.5,3.52,19.07,1.05,21.93-3.71,4.3-28.39,3.1-34.31,1.96-4.91-.94-9.53-1.82-10.47-7.51-1.97-11.83,1.93-29.07,2.01-41.52C2.67,27.58-3.3,2.24,20.38.08Z"/>
    <path class="cls-1" d="M7.58,86.22l-.83-2.24c1.41-19.15,2.12-38.29,2.14-57.43.35-7.25,1.04-16.9,8.97-19.62,16.45-5.64,17.24,14.96,17.56,25.49.55,18.42,1.01,36.8,1.09,54.81l-4.47,1.14c-3.94.57-21.24-.36-24.46-2.16Z"/>
    <path class="cls-2" d="M7.58,86.22c-2.96-1.65-2.28-6.72-2.19-9.75.29-9.97,2.04-20.18,2.22-30.15C7.86,32.13.95,3.1,24.49,5.64c15.4,1.66,13.17,15.66,13.34,27.01.19,12.51.48,25.43,1.41,38.1.38,5.21,1.45,10.57,2.2,15.74-.15,1.06-7.84,1.89-9.4,1.89.17-.03,2.61-.77,2.71-.87,2.08-1.82-.42-22.77-.59-26.8-.5-12.48.34-26.71-.7-38.87-.66-7.69-5.16-16.92-14.26-14.27-12,3.49-8.25,25.82-8.73,35.15l-2.91,43.5Z"/>
  </g>
</svg>

<?xml version="1.0" encoding="UTF-8" standalone="no"?>
<svg
   id="Layer_2"
   data-name="Layer 2"
   viewBox="0 0 46.267614 93.538869"
   version="1.1"
   sodipodi:docname="Human_09-upperarm_L.svg"
   width="46.267612"
   height="93.538872"
   xmlns:inkscape="http://www.inkscape.org/namespaces/inkscape"
   xmlns:sodipodi="http://sodipodi.sourceforge.net/DTD/sodipodi-0.dtd"
   xmlns="http://www.w3.org/2000/svg"
   xmlns:svg="http://www.w3.org/2000/svg">
  <sodipodi:namedview
     id="namedview14"
     pagecolor="#ffffff"
     bordercolor="#000000"
     borderopacity="0.25"
     inkscape:showpageshadow="2"
     inkscape:pageopacity="0.0"
     inkscape:pagecheckerboard="0"
     inkscape:deskcolor="#d1d1d1" />
  <defs
     id="defs4">
    <style
       id="style2">
      .cls-1 {
        fill: #06006b;
      }

      .cls-2 {
        fill: #0d0a43;
      }
    </style>
  </defs>
  <g
     id="Layer_1-2"
     data-name="Layer 1"
     transform="translate(0.0051376,-0.00133335)">
    <path
       d="m 20.38,0.08 c 6.55,-0.6 15.24,2.25 19,7.94 5.88,8.89 3.01,28.65 3.46,39.7 0.27,6.44 0.94,14.3 1.44,20.86 0.34,4.5 3.52,19.07 1.05,21.93 -3.71,4.3 -28.39,3.1 -34.31,1.96 C 6.11,91.53 1.49,90.65 0.55,84.96 -1.42,73.13 2.48,55.89 2.56,43.44 2.67,27.58 -3.3,2.24 20.38,0.08 Z"
       id="path6" />
    <path
       class="cls-1"
       d="M 7.58,86.22 6.75,83.98 C 8.16,64.83 8.87,45.69 8.89,26.55 9.24,19.3 9.93,9.65 17.86,6.93 34.31,1.29 35.1,21.89 35.42,32.42 c 0.55,18.42 1.01,36.8 1.09,54.81 l -4.47,1.14 C 28.1,88.94 10.8,88.01 7.58,86.21 Z"
       id="path8" />
    <path
       class="cls-2"
       d="M 7.58,86.22 C 4.62,84.57 5.3,79.5 5.39,76.47 5.68,66.5 7.43,56.29 7.61,46.32 7.86,32.13 0.95,3.1 24.49,5.64 39.89,7.3 37.66,21.3 37.83,32.65 c 0.19,12.51 0.48,25.43 1.41,38.1 0.38,5.21 1.45,10.57 2.2,15.74 -0.15,1.06 -7.84,1.89 -9.4,1.89 0.17,-0.03 2.61,-0.77 2.71,-0.87 C 36.83,85.69 34.33,64.74 34.16,60.71 33.66,48.23 34.5,34 33.46,21.84 32.8,14.15 28.3,4.92 19.2,7.57 7.2,11.06 10.95,33.39 10.47,42.72 l -2.91,43.5 z"
       id="path10" />
  </g>
</svg>
